packages/wallets/icons/solflare.svg

<svg fill="none" height="50" viewBox="0 0 50 50" width="50" xmlns="http://www.w3.org/2000/svg" xmlns:xlink="http://www.w3.org/1999/xlink"><linearGradient id="a"><stop offset="0" stop-color="#ffc10b"/><stop offset="1" stop-color="#fb3f2e"/></linearGradient><linearGradient id="b" gradientUnits="userSpaceOnUse" x1="6.47835" x2="34.9107" xlink:href="#a" y1="7.92" y2="33.6593"/><radialGradient id="c" cx="0" cy="0" gradientTransform="matrix(4.99218832 12.06387963 -12.18113655 5.04071074 22.5202 20.6183)" gradientUnits="userSpaceOnUse" r="1" xlink:href="#a"/><path d="m25.1708 47.9104c.525 0 .9507.421.9507.9403s-.4257.9402-.9507.9402-.9507-.4209-.9507-.9402.4257-.9403.9507-.9403zm-1.0328-44.91565c.4646.03836.8398.3904.9027.84681l1.1307 8.21574c.3798 2.7143 3.6535 3.8904 5.6743 2.0459l11.3291-10.31158c.2733-.24873.6989-.23149.9507.03851.2309.24772.2379.62697.0161.88277l-9.8791 11.3958c-1.8187 2.0942-.4768 5.3643 2.2956 5.5978l8.7168.8403c.4341.0418.7517.4234.7093.8524-.0349.3537-.3074.6395-.6628.6949l-9.1594 1.4302c-2.6593.3625-3.8636 3.5117-2.1339 5.5576l3.22 3.7961c.2594.3058.2188.7615-.0908 1.0178-.2622.2172-.6419.2256-.9138.0203l-3.9694-2.9978c-2.1421-1.6109-5.2297-.2417-5.4561 2.4243l-.8747 10.3976c-.0362.4295-.4178.7487-.8525.713-.369-.0303-.6671-.3097-.7171-.6721l-1.3871-10.0437c-.3717-2.7144-3.6454-3.8904-5.6743-2.0459l-12.05195 10.974c-.24947.2271-.63809.2114-.868-.035-.21094-.2262-.21735-.5724-.01493-.806l10.51818-12.1385c1.8187-2.0942.4849-5.3644-2.2876-5.5978l-8.71872-.8405c-.43413-.0418-.75172-.4235-.70936-.8524.03493-.3537.30739-.6394.6627-.695l9.15338-1.4299c2.6594-.3625 3.8718-3.5117 2.1421-5.5576l-2.192-2.5841c-.3217-.3792-.2713-.9443.1126-1.2621.3253-.2694.7963-.2797 1.1334-.0249l2.6918 2.0347c2.1421 1.6109 5.2297.2417 5.4561-2.4243l.7241-8.55998c.0457-.5408.5265-.94257 1.0739-.89737zm-23.18733 20.43965c.52504 0 .95067.421.95067.9403s-.42563.9403-.95067.9403c-.525041 0-.95067-.421-.95067-.9403s.425629-.9403.95067-.9403zm47.67973-.9547c.525 0 .9507.421.9507.9403s-.4257.9402-.9507.9402-.9507-.4209-.9507-.9402.4257-.9403.9507-.9403zm-24.6296-22.4797c.525 0 .9506.420973.9506.94027 0 .5193-.4256.94027-.9506.94027-.5251 0-.9507-.42097-.9507-.94027 0-.519297.4256-.94027.9507-.94027z" fill="url(#b)"/><path d="m24.571 32.7792c4.9596 0 8.9802-3.9765 8.9802-8.8819 0-4.9053-4.0206-8.8819-8.9802-8.8819s-8.9802 3.9766-8.9802 8.8819c0 4.9054 4.0206 8.8819 8.9802 8.8819z" fill="url(#c)"/></svg>

<svg width="50" height="50" viewBox="0 0 50 50" fill="none" xmlns="http://www.w3.org/2000/svg">
    <path
        d="M25.1708 47.9104C25.6958 47.9104 26.1215 48.3314 26.1215 48.8507C26.1215 49.37 25.6958 49.7909 25.1708 49.7909C24.6458 49.7909 24.2201 49.37 24.2201 48.8507C24.2201 48.3314 24.6458 47.9104 25.1708 47.9104ZM24.138 2.99475C24.6026 3.03311 24.9778 3.38515 25.0407 3.84156L26.1714 12.0573C26.5512 14.7716 29.8249 15.9477 31.8457 14.1032L43.1748 3.79162C43.4481 3.54289 43.8737 3.56013 44.1255 3.83013C44.3564 4.07785 44.3634 4.4571 44.1416 4.7129L34.2625 16.1087C32.4438 18.2029 33.7857 21.473 36.5581 21.7065L45.2749 22.5468C45.709 22.5886 46.0266 22.9702 45.9842 23.3992C45.9493 23.7529 45.6768 24.0387 45.3214 24.0941L36.162 25.5243C33.5027 25.8868 32.2984 29.036 34.0281 31.0819L37.2481 34.878C37.5075 35.1838 37.4669 35.6395 37.1573 35.8958C36.8951 36.113 36.5154 36.1214 36.2435 35.9161L32.2741 32.9183C30.132 31.3074 27.0444 32.6766 26.818 35.3426L25.9433 45.7402C25.9071 46.1697 25.5255 46.4889 25.0908 46.4532C24.7218 46.4229 24.4237 46.1435 24.3737 45.7811L22.9866 35.7374C22.6149 33.023 19.3412 31.847 17.3123 33.6915L5.26035 44.6655C5.01088 44.8926 4.62226 44.8769 4.39235 44.6305C4.18141 44.4043 4.175 44.0581 4.37742 43.8245L14.8956 31.686C16.7143 29.5918 15.3805 26.3216 12.608 26.0882L3.88928 25.2477C3.45515 25.2059 3.13756 24.8242 3.17992 24.3953C3.21485 24.0416 3.48731 23.7559 3.84262 23.7003L12.996 22.2704C15.6554 21.9079 16.8678 18.7587 15.1381 16.7128L12.9461 14.1287C12.6244 13.7495 12.6748 13.1844 13.0587 12.8666C13.384 12.5972 13.855 12.5869 14.1921 12.8417L16.8839 14.8764C19.026 16.4873 22.1136 15.1181 22.34 12.4521L23.0641 3.89212C23.1098 3.35132 23.5906 2.94955 24.138 2.99475ZM0.95067 23.4344C1.47571 23.4344 1.90134 23.8554 1.90134 24.3747C1.90134 24.894 1.47571 25.315 0.95067 25.315C0.425629 25.315 0 24.894 0 24.3747C0 23.8554 0.425629 23.4344 0.95067 23.4344ZM48.6304 22.4797C49.1554 22.4797 49.5811 22.9007 49.5811 23.42C49.5811 23.9393 49.1554 24.3602 48.6304 24.3602C48.1054 24.3602 47.6797 23.9393 47.6797 23.42C47.6797 22.9007 48.1054 22.4797 48.6304 22.4797ZM24.0008 0C24.5258 0 24.9514 0.420973 24.9514 0.94027C24.9514 1.45957 24.5258 1.88054 24.0008 1.88054C23.4757 1.88054 23.0501 1.45957 23.0501 0.94027C23.0501 0.420973 23.4757 0 24.0008 0Z"
        fill="url(#paint0_linear)"/>
    <path
        d="M24.571 32.7792C29.5306 32.7792 33.5512 28.8027 33.5512 23.8973C33.5512 18.992 29.5306 15.0154 24.571 15.0154C19.6114 15.0154 15.5908 18.992 15.5908 23.8973C15.5908 28.8027 19.6114 32.7792 24.571 32.7792Z"
        fill="url(#paint1_radial)"/>
    <defs>
        <linearGradient id="paint0_linear" x1="6.47835" y1="7.92" x2="34.9107" y2="33.6593"
                        gradientUnits="userSpaceOnUse">
            <stop stop-color="#FFC10B"/>
            <stop offset="1" stop-color="#FB3F2E"/>
        </linearGradient>
        <radialGradient id="paint1_radial" cx="0" cy="0" r="1" gradientUnits="userSpaceOnUse"
                        gradientTransform="translate(22.5202 20.6183) rotate(67.5196) scale(13.056 13.1829)">
            <stop stop-color="#FFC10B"/>
            <stop offset="1" stop-color="#FB3F2E"/>
        </radialGradient>
    </defs>
</svg>
